img/00top/なかはら.svg

<svg width="15" height="110" viewBox="0 0 15 110" fill="none" xmlns="http://www.w3.org/2000/svg">
<path d="M7.128 2.584C6.872 2.75467 6.56267 2.93067 6.2 3.112C5.848 3.28267 5.496 3.42667 5.144 3.544C4.856 4.33333 4.424 5.48 3.848 6.984C3.28267 8.488 2.92533 9.42133 2.776 9.784C2.68 9.99733 2.54667 10.1627 2.376 10.28C2.20533 10.3867 2.03467 10.44 1.864 10.44C1.65067 10.44 1.50133 10.3333 1.416 10.12C1.34133 9.90667 1.304 9.61333 1.304 9.24C1.304 9.09067 1.32 8.97867 1.352 8.904C1.384 8.81867 1.45867 8.696 1.576 8.536C1.608 8.48267 1.65067 8.41867 1.704 8.344C1.768 8.25867 1.84267 8.14667 1.928 8.008C2.36533 7.304 2.75467 6.62133 3.096 5.96C3.43733 5.29867 3.736 4.6 3.992 3.864C3.928 3.87467 3.84267 3.88 3.736 3.88C3.192 3.88 2.76533 3.736 2.456 3.448C2.14667 3.14933 1.91733 2.84 1.768 2.52C1.704 2.40267 1.672 2.30667 1.672 2.232C1.672 2.17867 1.69333 2.152 1.736 2.152C1.77867 2.152 1.85333 2.20533 1.96 2.312C2.10933 2.44 2.30667 2.54667 2.552 2.632C2.808 2.70667 3.06933 2.744 3.336 2.744C3.51733 2.744 3.848 2.696 4.328 2.6C4.37067 2.30133 4.392 2.08267 4.392 1.944C4.392 1.50667 4.28 1.18133 4.056 0.967999C3.96 0.882666 3.84267 0.802666 3.704 0.728C3.56533 0.653333 3.496 0.594666 3.496 0.551999C3.496 0.498666 3.544 0.455999 3.64 0.424C3.736 0.381333 3.864 0.36 4.024 0.36C4.23733 0.36 4.456 0.397333 4.68 0.471999C5.192 0.642666 5.496 0.909333 5.592 1.272C5.63467 1.26133 5.67733 1.26133 5.72 1.272C5.77333 1.272 5.832 1.26667 5.896 1.256C6.06667 1.256 6.232 1.25067 6.392 1.24C6.552 1.21867 6.66933 1.208 6.744 1.208H6.968C7.096 1.208 7.20267 1.22933 7.288 1.272C7.39467 1.31467 7.47467 1.37867 7.528 1.464C7.592 1.54933 7.624 1.64533 7.624 1.752C7.624 1.90133 7.57067 2.05067 7.464 2.2C7.368 2.34933 7.256 2.47733 7.128 2.584ZM5.624 1.608C5.624 1.768 5.59733 1.97067 5.544 2.216C5.576 2.20533 5.656 2.168 5.784 2.104C5.98667 1.98667 6.088 1.88533 6.088 1.8C6.088 1.736 6.024 1.672 5.896 1.608L5.624 1.48V1.608ZM9.992 4.728C9.59733 4.728 9.28267 4.89333 9.048 5.224C8.824 5.544 8.712 5.99733 8.712 6.584C8.712 7.16 8.808 8.01333 9 9.144C9.064 9.528 9.10667 9.81067 9.128 9.992C10.152 10.248 10.8987 10.5573 11.368 10.92C11.56 11.048 11.704 11.1973 11.8 11.368C11.896 11.528 11.944 11.6827 11.944 11.832C11.944 12.0027 11.8853 12.152 11.768 12.28C11.6613 12.408 11.528 12.472 11.368 12.472C11.2187 12.472 11.048 12.424 10.856 12.328C10.664 12.232 10.4347 12.0933 10.168 11.912C9.92267 11.752 9.624 11.5867 9.272 11.416V11.544C9.272 12.1733 9.02667 12.6747 8.536 13.048C8.056 13.4213 7.47467 13.608 6.792 13.608C6.39733 13.608 6.01333 13.5333 5.64 13.384C5.27733 13.2453 4.97867 13.0373 4.744 12.76C4.50933 12.4827 4.392 12.152 4.392 11.768C4.392 11.128 4.696 10.6373 5.304 10.296C5.912 9.944 6.63733 9.768 7.48 9.768C7.64 9.768 7.768 9.77333 7.864 9.784C7.85333 9.48533 7.848 9.02667 7.848 8.408C7.848 7.98133 7.85333 7.66667 7.864 7.464C7.896 6.81333 7.98667 6.28533 8.136 5.88C8.28533 5.47467 8.536 5.13867 8.888 4.872C9.24 4.59467 9.74667 4.34933 10.408 4.136C10.5787 4.08267 10.664 3.992 10.664 3.864C10.664 3.72533 10.5947 3.58133 10.456 3.432C10.328 3.28267 10.136 3.09067 9.88 2.856C9.77333 2.80267 9.72 2.75467 9.72 2.712C9.72 2.66933 9.77867 2.648 9.896 2.648C10.0347 2.648 10.2213 2.68 10.456 2.744C10.9787 2.872 11.4587 3.11733 11.896 3.48C12.344 3.832 12.568 4.21067 12.568 4.616C12.568 4.872 12.488 5.08 12.328 5.24C12.168 5.4 11.976 5.48 11.752 5.48C11.592 5.48 11.4533 5.45333 11.336 5.4C11.2293 5.336 11.0747 5.22933 10.872 5.08C10.6907 4.96267 10.5307 4.87733 10.392 4.824C10.264 4.76 10.1307 4.728 9.992 4.728ZM6.472 12.568C7.02667 12.568 7.39467 12.4293 7.576 12.152C7.75733 11.8747 7.85333 11.4747 7.864 10.952C7.40533 10.8667 7.01067 10.824 6.68 10.824C6.22133 10.824 5.832 10.888 5.512 11.016C5.20267 11.144 5.048 11.3573 5.048 11.656C5.048 11.944 5.18667 12.168 5.464 12.328C5.752 12.488 6.088 12.568 6.472 12.568ZM7.208 36.088C7.90133 36.088 8.40267 36.312 8.712 36.76C9.02133 37.208 9.176 37.864 9.176 38.728C9.176 39.1973 9.112 39.7947 8.984 40.52C8.856 41.2453 8.65867 41.9547 8.392 42.648C8.136 43.3413 7.82133 43.88 7.448 44.264C7.24533 44.4773 7.04267 44.6427 6.84 44.76C6.648 44.8667 6.47733 44.92 6.328 44.92C6.15733 44.92 5.99733 44.8507 5.848 44.712C5.70933 44.5733 5.60267 44.392 5.528 44.168C5.368 43.656 5.10667 43.1547 4.744 42.664C4.72267 42.6213 4.69067 42.5733 4.648 42.52C4.60533 42.456 4.584 42.408 4.584 42.376C4.584 42.3547 4.60533 42.344 4.648 42.344C4.70133 42.344 4.81867 42.4027 5 42.52C5.02133 42.5307 5.144 42.6 5.368 42.728C5.57067 42.8453 5.736 42.936 5.864 43C5.992 43.0533 6.104 43.08 6.2 43.08C6.552 43.08 6.86133 42.7867 7.128 42.2C7.40533 41.6027 7.61867 40.9147 7.768 40.136C7.91733 39.3467 7.992 38.712 7.992 38.232C7.992 37.7413 7.92267 37.3787 7.784 37.144C7.656 36.9093 7.43733 36.792 7.128 36.792C6.73333 36.792 6.12533 36.9787 5.304 37.352C4.80267 39.624 4.008 41.6667 2.92 43.48C2.76 43.768 2.57867 43.992 2.376 44.152C2.17333 44.312 1.98133 44.392 1.8 44.392C1.62933 44.392 1.49067 44.3333 1.384 44.216C1.27733 44.088 1.224 43.9227 1.224 43.72C1.224 43.3467 1.40533 42.9253 1.768 42.456C2.408 41.6133 2.904 40.8293 3.256 40.104C3.61867 39.3787 3.896 38.6693 4.088 37.976C3.65067 38.2213 3.27733 38.4133 2.968 38.552C2.66933 38.68 2.41333 38.744 2.2 38.744C1.98667 38.744 1.75733 38.664 1.512 38.504C1.26667 38.3333 1.05867 38.1147 0.888 37.848C0.728 37.5813 0.648 37.3093 0.648 37.032C0.648 36.904 0.68 36.84 0.744 36.84C0.776 36.84 0.829333 36.8667 0.904 36.92C0.978667 36.9627 1.04267 37 1.096 37.032C1.384 37.1813 1.73067 37.256 2.136 37.256C2.86133 37.2347 3.608 37.0907 4.376 36.824C4.49333 36.1413 4.552 35.5973 4.552 35.192C4.552 34.616 4.44533 34.1947 4.232 33.928C4.104 33.768 3.96 33.624 3.8 33.496C3.64 33.368 3.56 33.2827 3.56 33.24C3.56 33.176 3.61867 33.1227 3.736 33.08C3.85333 33.0267 4.01333 33 4.216 33C4.408 33 4.61067 33.0267 4.824 33.08C5.048 33.1333 5.22933 33.1973 5.368 33.272C5.752 33.464 5.944 33.7627 5.944 34.168C5.944 34.3707 5.88 34.7067 5.752 35.176C5.67733 35.464 5.63467 35.6453 5.624 35.72L5.496 36.408C6.21067 36.1947 6.78133 36.088 7.208 36.088ZM10.392 36.136C11.32 36.1467 12.0827 36.3067 12.68 36.616C13.2773 36.9253 13.7093 37.2933 13.976 37.72C14.2533 38.136 14.392 38.5307 14.392 38.904C14.392 39.1813 14.328 39.4267 14.2 39.64C14.072 39.8533 13.912 40.0187 13.72 40.136C13.5387 40.2533 13.3573 40.312 13.176 40.312C12.9947 40.312 12.7813 40.2107 12.536 40.008C12.3227 39.8267 12.0613 39.6987 11.752 39.624C11.4533 39.5387 11.112 39.4747 10.728 39.432C10.5787 39.4107 10.504 39.3787 10.504 39.336C10.504 39.2933 10.6 39.2613 10.792 39.24C11.016 39.1973 11.368 39.1493 11.848 39.096C12.2 39.032 12.4293 38.968 12.536 38.904C12.6427 38.84 12.696 38.728 12.696 38.568C12.696 38.0667 12.456 37.6133 11.976 37.208C11.496 36.792 10.952 36.488 10.344 36.296C10.248 36.264 10.2 36.232 10.2 36.2C10.2 36.1573 10.264 36.136 10.392 36.136ZM12.552 74.968C12.7653 75.1387 12.9253 75.32 13.032 75.512C13.1387 75.6933 13.192 75.8747 13.192 76.056C13.192 76.2373 13.1387 76.3973 13.032 76.536C12.9253 76.664 12.7813 76.728 12.6 76.728C12.408 76.728 12.2267 76.664 12.056 76.536C11.8853 76.408 11.72 76.264 11.56 76.104C11.4107 75.944 11.3093 75.8373 11.256 75.784C11.0533 75.6027 10.8667 75.4533 10.696 75.336L10.44 75.16C10.312 76.5147 9.544 77.192 8.136 77.192C7.35733 77.192 6.72267 77.016 6.232 76.664C5.752 76.312 5.512 75.8587 5.512 75.304C5.512 74.7173 5.80533 74.28 6.392 73.992C6.98933 73.704 7.65067 73.56 8.376 73.56C8.536 73.56 8.776 73.5707 9.096 73.592L9.032 69.768L8.568 69.816C8.376 69.816 8.19467 69.8 8.024 69.768C7.52267 69.6933 7.11733 69.528 6.808 69.272C6.50933 69.0053 6.248 68.6267 6.024 68.136C5.992 68.072 5.976 68.0027 5.976 67.928C5.976 67.864 5.99733 67.832 6.04 67.832C6.08267 67.832 6.17333 67.8907 6.312 68.008C6.504 68.1787 6.73867 68.328 7.016 68.456C7.29333 68.584 7.58133 68.648 7.88 68.648C8.12533 68.648 8.504 68.5947 9.016 68.488C9.00533 68.0293 9 67.48 9 66.84C8.98933 66.616 8.936 66.408 8.84 66.216C8.75467 66.024 8.65867 65.8693 8.552 65.752C8.52 65.5493 8.44533 65.4053 8.328 65.32C8.22133 65.2347 8.15733 65.1867 8.136 65.176C8.11467 65.1227 8.15733 65.064 8.264 65C8.38133 64.936 8.50933 64.904 8.648 64.904C8.84 64.904 9.064 64.9573 9.32 65.064C9.58667 65.16 9.78933 65.2773 9.928 65.416C10.2373 65.5547 10.376 65.8267 10.344 66.232L10.264 66.776C10.68 67.096 11.0213 67.288 11.288 67.352C11.3733 67.3733 11.5333 67.4 11.768 67.432C11.96 67.4533 12.0987 67.4853 12.184 67.528C12.28 67.56 12.344 67.64 12.376 67.768C12.3973 67.8107 12.408 67.8853 12.408 67.992C12.408 68.3333 12.1413 68.6373 11.608 68.904C11.1813 69.1173 10.664 69.32 10.056 69.512V69.864C10.056 70.4507 10.0773 70.9893 10.12 71.48C10.1627 71.96 10.2267 72.5253 10.312 73.176C10.3547 73.5067 10.3813 73.7307 10.392 73.848C11.224 74.072 11.944 74.4453 12.552 74.968ZM4.536 69.192C4.568 69.192 4.584 69.2133 4.584 69.256C4.584 69.2667 4.568 69.336 4.536 69.464C4.22667 70.3173 3.92267 71.2773 3.624 72.344C3.32533 73.4 3.176 74.1413 3.176 74.568C3.176 74.7707 3.23467 75.1547 3.352 75.72C3.43733 76.1253 3.48 76.3813 3.48 76.488C3.48 76.6693 3.432 76.824 3.336 76.952C3.25067 77.0693 3.128 77.128 2.968 77.128C2.59467 77.128 2.24267 76.8667 1.912 76.344C1.688 76.0133 1.512 75.624 1.384 75.176C1.26667 74.7173 1.208 74.12 1.208 73.384C1.208 72.136 1.4 70.7173 1.784 69.128L1.96 68.424C2.056 68.0507 2.12533 67.7627 2.168 67.56C2.21067 67.3573 2.232 67.1333 2.232 66.888C2.232 66.6107 2.19467 66.3547 2.12 66.12C2.056 65.8853 1.944 65.6347 1.784 65.368C1.77333 65.3467 1.75733 65.32 1.736 65.288C1.71467 65.2453 1.704 65.2133 1.704 65.192C1.704 65.16 1.71467 65.1333 1.736 65.112C1.768 65.0907 1.8 65.08 1.832 65.08C1.90667 65.08 2.01867 65.1227 2.168 65.208C2.57333 65.5067 2.92533 65.832 3.224 66.184C3.53333 66.5253 3.688 66.9307 3.688 67.4C3.688 67.6027 3.64533 67.8107 3.56 68.024C3.47467 68.2267 3.34667 68.4987 3.176 68.84C3.02667 69.1067 2.90933 69.336 2.824 69.528C2.39733 70.488 2.184 71.4693 2.184 72.472C2.184 72.696 2.2 72.9093 2.232 73.112C2.27467 73.3147 2.33867 73.416 2.424 73.416C2.52 73.416 2.63733 73.2667 2.776 72.968C2.92533 72.6693 3.144 72.1787 3.432 71.496C3.48533 71.368 3.608 71.0747 3.8 70.616C3.992 70.1467 4.184 69.72 4.376 69.336C4.42933 69.24 4.48267 69.192 4.536 69.192ZM10.184 67.672C10.1413 67.992 10.12 68.168 10.12 68.2C10.6213 68.0293 10.872 67.88 10.872 67.752C10.872 67.656 10.6587 67.432 10.232 67.08L10.184 67.672ZM7.784 76.216C8.22133 76.216 8.552 76.0933 8.776 75.848C9 75.6027 9.112 75.1813 9.112 74.584C8.728 74.4773 8.32267 74.424 7.896 74.424C7.448 74.424 7.05333 74.4827 6.712 74.6C6.38133 74.7173 6.216 74.9253 6.216 75.224C6.216 75.544 6.38667 75.7893 6.728 75.96C7.08 76.1307 7.432 76.216 7.784 76.216ZM4.536 109.64C4.408 109.64 4.344 109.603 4.344 109.528C4.344 109.475 4.37067 109.437 4.424 109.416C4.488 109.395 4.57867 109.379 4.696 109.368C6.36 109.101 7.61333 108.627 8.456 107.944C9.29867 107.261 9.72 106.408 9.72 105.384C9.72 104.829 9.60267 104.381 9.368 104.04C9.13333 103.688 8.78667 103.512 8.328 103.512C7.816 103.512 7.37867 103.709 7.016 104.104C6.664 104.499 6.27467 105.096 5.848 105.896C5.752 106.109 5.60267 106.285 5.4 106.424C5.208 106.563 5.02667 106.632 4.856 106.632C4.344 106.632 3.93333 106.477 3.624 106.168C3.31467 105.859 3.16 105.411 3.16 104.824C3.16 104.365 3.224 103.368 3.352 101.832C3.416 101.064 3.448 100.664 3.448 100.632C3.448 100.483 3.432 100.333 3.4 100.184C3.37867 100.024 3.368 99.9067 3.368 99.832C3.368 99.5973 3.448 99.3893 3.608 99.208C3.768 99.0267 4.024 98.8187 4.376 98.584C4.61067 98.4133 4.968 98.2267 5.448 98.024C5.72533 97.896 5.92267 97.8 6.04 97.736C6.15733 97.6613 6.216 97.5813 6.216 97.496C6.216 97.3787 6.11467 97.2293 5.912 97.048C5.70933 96.8667 5.464 96.696 5.176 96.536C5.15467 96.5253 5.112 96.504 5.048 96.472C4.984 96.4293 4.952 96.392 4.952 96.36C4.952 96.296 5.12267 96.264 5.464 96.264C5.976 96.264 6.424 96.36 6.808 96.552C7.192 96.744 7.53333 97.0747 7.832 97.544C7.96 97.7253 8.024 97.9227 8.024 98.136C8.024 98.36 7.944 98.5627 7.784 98.744C7.63467 98.9147 7.464 99 7.272 99C7.10133 99 6.90933 98.9147 6.696 98.744C6.52533 98.6373 6.376 98.5573 6.248 98.504C6.12 98.44 5.96 98.408 5.768 98.408C5.416 98.408 5.05333 98.5253 4.68 98.76C4.57333 98.824 4.488 98.9093 4.424 99.016C4.36 99.112 4.328 99.2133 4.328 99.32C4.328 99.4053 4.38133 99.5547 4.488 99.768C4.62667 100.045 4.696 100.28 4.696 100.472C4.696 100.568 4.65333 100.904 4.568 101.48C4.42933 102.408 4.36 103.091 4.36 103.528C4.36 103.816 4.392 104.099 4.456 104.376C4.53067 104.653 4.632 104.792 4.76 104.792C4.83467 104.792 4.936 104.755 5.064 104.68C5.20267 104.595 5.38933 104.472 5.624 104.312C6.15733 103.928 6.65333 103.624 7.112 103.4C7.57067 103.165 8.06133 103.048 8.584 103.048C9.05333 103.048 9.50133 103.171 9.928 103.416C10.3653 103.661 10.712 103.992 10.968 104.408C11.2347 104.824 11.368 105.288 11.368 105.8C11.368 106.333 11.224 106.84 10.936 107.32C10.6587 107.8 10.0453 108.253 9.096 108.68C8.14667 109.107 6.76533 109.416 4.952 109.608L4.536 109.64Z" fill="black"/>
</svg>

<svg width="15" height="110" fill="none" xmlns="http://www.w3.org/2000/svg"><path d="M7.128 2.584a8.705 8.705 0 0 1-1.984.96c-.288.79-.72 1.936-1.296 3.44a138.908 138.908 0 0 1-1.072 2.8c-.096.213-.23.379-.4.496a.96.96 0 0 1-.512.16c-.213 0-.363-.107-.448-.32-.075-.213-.112-.507-.112-.88 0-.15.016-.261.048-.336.032-.085.107-.208.224-.368.032-.053.075-.117.128-.192.064-.085.139-.197.224-.336.437-.704.827-1.387 1.168-2.048.341-.661.64-1.36.896-2.096-.064.01-.15.016-.256.016-.544 0-.97-.144-1.28-.432a3.168 3.168 0 0 1-.688-.928.645.645 0 0 1-.096-.288c0-.053.021-.08.064-.08s.117.053.224.16c.15.128.347.235.592.32.256.075.517.112.784.112.181 0 .512-.048.992-.144.043-.299.064-.517.064-.656 0-.437-.112-.763-.336-.976a1.843 1.843 0 0 0-.352-.24C3.565.653 3.496.595 3.496.552c0-.053.048-.096.144-.128A.96.96 0 0 1 4.024.36c.213 0 .432.037.656.112.512.17.816.437.912.8a.26.26 0 0 1 .128 0c.053 0 .112-.005.176-.016.17 0 .336-.005.496-.016.16-.021.277-.032.352-.032h.224c.128 0 .235.021.32.064a.484.484 0 0 1 .24.192.468.468 0 0 1 .096.288c0 .15-.053.299-.16.448-.096.15-.208.277-.336.384Zm-1.504-.976c0 .16-.027.363-.08.608.032-.01.112-.048.24-.112.203-.117.304-.219.304-.304 0-.064-.064-.128-.192-.192l-.272-.128v.128Zm4.368 3.12c-.395 0-.71.165-.944.496-.224.32-.336.773-.336 1.36 0 .576.096 1.43.288 2.56.064.384.107.667.128.848 1.024.256 1.77.565 2.24.928.192.128.336.277.432.448.096.16.144.315.144.464 0 .17-.059.32-.176.448a.5.5 0 0 1-.4.192c-.15 0-.32-.048-.512-.144a6.217 6.217 0 0 1-.688-.416 8.23 8.23 0 0 0-.896-.496v.128c0 .63-.245 1.13-.736 1.504-.48.373-1.061.56-1.744.56-.395 0-.779-.075-1.152-.224a2.16 2.16 0 0 1-.896-.624 1.486 1.486 0 0 1-.352-.992c0-.64.304-1.13.912-1.472.608-.352 1.333-.528 2.176-.528.16 0 .288.005.384.016a42.534 42.534 0 0 1 0-2.32c.032-.65.123-1.179.272-1.584.15-.405.4-.741.752-1.008.352-.277.859-.523 1.52-.736.17-.053.256-.144.256-.272 0-.139-.07-.283-.208-.432a7.197 7.197 0 0 0-.576-.576c-.107-.053-.16-.101-.16-.144 0-.043.059-.064.176-.064.139 0 .325.032.56.096a3.563 3.563 0 0 1 1.44.736c.448.352.672.73.672 1.136 0 .256-.08.464-.24.624a.786.786 0 0 1-.576.24.998.998 0 0 1-.416-.08 6.537 6.537 0 0 1-.464-.32 2.692 2.692 0 0 0-.48-.256.883.883 0 0 0-.4-.096Zm-3.52 7.84c.555 0 .923-.139 1.104-.416.181-.277.277-.677.288-1.2a6.618 6.618 0 0 0-1.184-.128c-.459 0-.848.064-1.168.192-.31.128-.464.341-.464.64 0 .288.139.512.416.672.288.16.624.24 1.008.24Zm.736 23.52c.693 0 1.195.224 1.504.672.31.448.464 1.104.464 1.968 0 .47-.064 1.067-.192 1.792a11.465 11.465 0 0 1-.592 2.128c-.256.693-.57 1.232-.944 1.616a2.764 2.764 0 0 1-.608.496c-.192.107-.363.16-.512.16-.17 0-.33-.07-.48-.208a1.365 1.365 0 0 1-.32-.544 5.088 5.088 0 0 0-.784-1.504.836.836 0 0 0-.096-.144c-.043-.064-.064-.112-.064-.144 0-.021.021-.032.064-.032.053 0 .17.059.352.176.021.01.144.08.368.208.203.117.368.208.496.272.128.053.24.08.336.08.352 0 .661-.293.928-.88.277-.597.49-1.285.64-2.064.15-.79.224-1.424.224-1.904 0-.49-.07-.853-.208-1.088-.128-.235-.347-.352-.656-.352-.395 0-1.003.187-1.824.56-.501 2.272-1.296 4.315-2.384 6.128-.16.288-.341.512-.544.672-.203.16-.395.24-.576.24a.536.536 0 0 1-.416-.176.749.749 0 0 1-.16-.496c0-.373.181-.795.544-1.264.64-.843 1.136-1.627 1.488-2.352.363-.725.64-1.435.832-2.128-.437.245-.81.437-1.12.576-.299.128-.555.192-.768.192-.213 0-.443-.08-.688-.24a2.294 2.294 0 0 1-.624-.656 1.569 1.569 0 0 1-.24-.816c0-.128.032-.192.096-.192.032 0 .085.027.16.08l.192.112c.288.15.635.224 1.04.224a7.487 7.487 0 0 0 2.24-.432c.117-.683.176-1.227.176-1.632 0-.576-.107-.997-.32-1.264a2.758 2.758 0 0 0-.432-.432c-.16-.128-.24-.213-.24-.256 0-.064.059-.117.176-.16.117-.053.277-.08.48-.08.192 0 .395.027.608.08.224.053.405.117.544.192.384.192.576.49.576.896 0 .203-.064.539-.192 1.008-.075.288-.117.47-.128.544l-.128.688c.715-.213 1.285-.32 1.712-.32Zm3.184.048c.928.01 1.69.17 2.288.48.597.31 1.03.677 1.296 1.104.277.416.416.81.416 1.184a1.429 1.429 0 0 1-.672 1.232.995.995 0 0 1-.544.176c-.181 0-.395-.101-.64-.304a1.865 1.865 0 0 0-.784-.384 6.275 6.275 0 0 0-1.024-.192c-.15-.021-.224-.053-.224-.096 0-.043.096-.075.288-.096.224-.043.576-.09 1.056-.144.352-.064.581-.128.688-.192.107-.064.16-.176.16-.336 0-.501-.24-.955-.72-1.36a4.564 4.564 0 0 0-1.632-.912c-.096-.032-.144-.064-.144-.096 0-.043.064-.064.192-.064Zm2.16 38.832c.213.17.373.352.48.544.107.181.16.363.16.544a.765.765 0 0 1-.16.48.533.533 0 0 1-.432.192.891.891 0 0 1-.544-.192 4.633 4.633 0 0 1-.496-.432c-.15-.16-.25-.267-.304-.32a5.697 5.697 0 0 0-.56-.448l-.256-.176c-.128 1.355-.896 2.032-2.304 2.032-.779 0-1.413-.176-1.904-.528-.48-.352-.72-.805-.72-1.36 0-.587.293-1.024.88-1.312a4.508 4.508 0 0 1 1.984-.432c.16 0 .4.01.72.032l-.064-3.824-.464.048a2.95 2.95 0 0 1-.544-.048c-.501-.075-.907-.24-1.216-.496-.299-.267-.56-.645-.784-1.136a.458.458 0 0 1-.048-.208c0-.064.021-.096.064-.096s.133.059.272.176c.192.17.427.32.704.448.277.128.565.192.864.192.245 0 .624-.053 1.136-.16A72.348 72.348 0 0 1 9 66.84a1.543 1.543 0 0 0-.16-.624 1.73 1.73 0 0 0-.288-.464c-.032-.203-.107-.347-.224-.432a1.985 1.985 0 0 0-.192-.144c-.021-.053.021-.112.128-.176a.789.789 0 0 1 .384-.096c.192 0 .416.053.672.16.267.096.47.213.608.352.31.139.448.41.416.816l-.08.544c.416.32.757.512 1.024.576.085.021.245.048.48.08.192.021.33.053.416.096.096.032.16.112.192.24a.55.55 0 0 1 .032.224c0 .341-.267.645-.8.912-.427.213-.944.416-1.552.608v.352c0 .587.021 1.125.064 1.616.043.48.107 1.045.192 1.696.043.33.07.555.08.672a5.425 5.425 0 0 1 2.16 1.12Zm-8.016-5.776c.032 0 .048.021.048.064 0 .01-.016.08-.048.208-.31.853-.613 1.813-.912 2.88-.299 1.056-.448 1.797-.448 2.224 0 .203.059.587.176 1.152.085.405.128.661.128.768a.751.751 0 0 1-.144.464.427.427 0 0 1-.368.176c-.373 0-.725-.261-1.056-.784-.224-.33-.4-.72-.528-1.168-.117-.459-.176-1.056-.176-1.792 0-1.248.192-2.667.576-4.256l.176-.704c.096-.373.165-.661.208-.864.043-.203.064-.427.064-.672 0-.277-.037-.533-.112-.768a3.034 3.034 0 0 0-.336-.752.788.788 0 0 0-.048-.08.246.246 0 0 1-.032-.096c0-.032.01-.059.032-.08a.172.172 0 0 1 .096-.032c.075 0 .187.043.336.128.405.299.757.624 1.056.976a1.75 1.75 0 0 1 .336 1.84c-.085.203-.213.475-.384.816-.15.267-.267.496-.352.688a7.181 7.181 0 0 0-.64 2.944c0 .224.016.437.048.64.043.203.107.304.192.304.096 0 .213-.15.352-.448.15-.299.368-.79.656-1.472l.368-.88c.192-.47.384-.896.576-1.28.053-.096.107-.144.16-.144Zm5.648-1.52c-.043.32-.064.496-.064.528.501-.17.752-.32.752-.448 0-.096-.213-.32-.64-.672l-.048.592Zm-2.4 8.544c.437 0 .768-.123.992-.368.224-.245.336-.667.336-1.264a4.522 4.522 0 0 0-1.216-.16 3.64 3.64 0 0 0-1.184.176c-.33.117-.496.325-.496.624 0 .32.17.565.512.736.352.17.704.256 1.056.256ZM4.536 109.64c-.128 0-.192-.037-.192-.112 0-.053.027-.091.08-.112.064-.021.155-.037.272-.048 1.664-.267 2.917-.741 3.76-1.424.843-.683 1.264-1.536 1.264-2.56 0-.555-.117-1.003-.352-1.344-.235-.352-.581-.528-1.04-.528-.512 0-.95.197-1.312.592-.352.395-.741.992-1.168 1.792a1.26 1.26 0 0 1-.448.528c-.192.139-.373.208-.544.208-.512 0-.923-.155-1.232-.464-.31-.309-.464-.757-.464-1.344 0-.459.064-1.456.192-2.992.064-.768.096-1.168.096-1.2 0-.149-.016-.299-.048-.448a2.978 2.978 0 0 1-.032-.352c0-.235.08-.443.24-.624.16-.181.416-.39.768-.624.235-.17.592-.357 1.072-.56.277-.128.475-.224.592-.288.117-.075.176-.155.176-.24 0-.117-.101-.267-.304-.448a4.05 4.05 0 0 0-.736-.512l-.128-.064c-.064-.043-.096-.08-.096-.112 0-.064.17-.096.512-.096.512 0 .96.096 1.344.288.384.192.725.523 1.024.992.128.181.192.379.192.592 0 .224-.08.427-.24.608-.15.17-.32.256-.512.256-.17 0-.363-.085-.576-.256a3.176 3.176 0 0 0-.448-.24 1.069 1.069 0 0 0-.48-.096c-.352 0-.715.117-1.088.352a.735.735 0 0 0-.256.256.54.54 0 0 0-.096.304c0 .085.053.235.16.448.139.277.208.512.208.704 0 .096-.043.432-.128 1.008-.139.928-.208 1.611-.208 2.048 0 .288.032.571.096.848.075.277.176.416.304.416.075 0 .176-.037.304-.112.139-.085.325-.208.56-.368a10.4 10.4 0 0 1 1.488-.912c.459-.235.95-.352 1.472-.352.47 0 .917.123 1.344.368.437.245.784.576 1.04.992.267.416.4.88.4 1.392a2.91 2.91 0 0 1-.432 1.52c-.277.48-.89.933-1.84 1.36-.95.427-2.33.736-4.144.928l-.416.032Z" fill="#000"/></svg>
